src/assets/media/icon_door.svg

<svg width="25" height="24" viewBox="0 0 25 24" fill="none" xmlns="http://www.w3.org/2000/svg">
    <path d="M4.56873 20V18.5883H6.45109V4H14.9217V4.94118H18.2158V18.5883H20.0981V20H16.804V6.35293H14.9217V20H4.56873ZM11.6276 12.8326C11.858 12.8326 12.0544 12.7514 12.2167 12.5891C12.379 12.4268 12.4601 12.2305 12.4601 12C12.4601 11.7695 12.379 11.5732 12.2167 11.4109C12.0544 11.2486 11.858 11.1674 11.6276 11.1674C11.3971 11.1674 11.2007 11.2486 11.0384 11.4109C10.8761 11.5732 10.795 11.7695 10.795 12C10.795 12.2305 10.8761 12.4268 11.0384 12.5891C11.2007 12.7514 11.3971 12.8326 11.6276 12.8326ZM7.86284 18.5883H13.5099V5.41175H7.86284V18.5883Z"
          fill="#667085"/>
</svg>

<svg width="25" height="24" fill="none" xmlns="http://www.w3.org/2000/svg">
    <path d="M4.569 20v-1.412H6.45V4h8.47v.941h3.295v13.647h1.882V20h-3.294V6.353h-1.882V20H4.569zm7.059-7.167c.23 0 .426-.082.589-.244A.802.802 0 0 0 12.46 12a.802.802 0 0 0-.243-.59.803.803 0 0 0-.59-.243.803.803 0 0 0-.589.244.802.802 0 0 0-.243.589c0 .23.081.427.243.59a.803.803 0 0 0 .59.243zm-3.765 5.755h5.647V5.412H7.863v13.176z"
          fill="#667085"/>
</svg>
